svg/live_chat.svg

<svg width="24" height="24" viewBox="0 0 24 24" xmlns="http://www.w3.org/2000/svg">
<title>live_chat</title>
<path d="M17.0007 11.9847C17.0007 12.2662 16.8992 12.5007 16.6962 12.6882C16.4932 12.8757 16.251 12.9695 15.9695 12.9695H5.98475L2 17.0007V2.98475C2 2.70325 2.09375 2.46875 2.28125 2.28125C2.46875 2.09375 2.70325 2 2.98475 2H15.9695C16.251 2 16.4932 2.09375 16.6962 2.28125C16.8992 2.46875 17.0007 2.70325 17.0007 2.98475V11.9847V11.9847ZM14.228 8.45491V6.5H12.2731V8.45491H14.228ZM10.3189 8.45491V6.5H8.40983V8.45491H10.3189ZM6.45491 8.45491V6.5H4.5V8.45491H6.45491ZM20.9848 5.98475C21.2663 5.98475 21.5008 6.0785 21.6883 6.266C21.8758 6.4535 21.9695 6.688 21.9695 6.9695V21.9695L17.9848 17.9847H6.96875C6.68725 17.9847 6.45275 17.891 6.26525 17.7035C6.07775 17.516 5.984 17.2815 5.984 17V14.984H18.9688V5.984H20.9848V5.98475Z"/>
</svg>

<svg xmlns="http://www.w3.org/2000/svg" viewBox="0 0 24 24"><title>live_chat</title><path d="M17 11.985a.92.92 0 0 1-.304.703 1.03 1.03 0 0 1-.727.281H5.986L2 17.002V2.985q0-.423.281-.704A.95.95 0 0 1 2.985 2H15.97q.421 0 .726.281a.92.92 0 0 1 .305.704zm-2.772-3.53V6.5h-1.955v1.955zm-3.91 0V6.5H8.41v1.955zm-3.863 0V6.5H4.5v1.955zm14.53-2.47q.422 0 .703.281a.95.95 0 0 1 .282.704v15l-3.985-3.985H6.969a.95.95 0 0 1-.704-.282.95.95 0 0 1-.281-.703v-2.016h12.985v-9h2.016"/></svg>
